X: 1
T: Moonlit Grove, The
M: 4/4
L: 1/8
R: reel
K: Bmin
: f2 fd B2 Bd | c>dcB AF^GA | B2 de f2 ec | B2 B2 BFBd |
f2 fd B2 Bd | c>dcB AF^GA | B2 dB ecAF |[1 B2 B2 BFBd :|[2 B2 B2 Bdfa ||
|: b>bbf a2 fe | b>bbf a2 e2 | f>edc BFAc | BFAE F^GAc |
B>cBF Acec | B>cBf e2 fa | b>ffa ^g>eeg |[1 faec Bdfa :|[2 faec B2 B2 |]
